assets/images/subscribe/subscribe-sticker-success.svg

<svg width="120" height="120" viewBox="0 0 120 120" fill="none" xmlns="http://www.w3.org/2000/svg">
<circle cx="60" cy="60" r="60" fill="#FE6D44"/>
<path d="M105.658 34.5481L98.0042 41.4707L99.129 43.9871L109.394 42.908L108.52 40.9522L100.6 41.8599L106.564 36.5755L105.658 34.5481Z" fill="#FCFAF9"/>
<path d="M105.452 46.3001C102.582 46.8312 100.859 49.3017 101.391 52.1647C101.923 55.0278 104.42 56.7171 107.29 56.186C110.16 55.6549 111.883 53.1844 111.351 50.3213C110.819 47.4583 108.321 45.769 105.452 46.3001ZM106.896 54.0676C105.03 54.4129 103.6 53.5222 103.283 51.8146C102.965 50.1071 103.98 48.7638 105.846 48.4185C107.712 48.0732 109.142 48.9639 109.459 50.6714C109.777 52.379 108.762 53.7222 106.896 54.0676Z" fill="#FCFAF9"/>
<path d="M107.389 57.8302C104.488 57.663 102.222 59.4419 102.049 62.4272C101.918 64.6955 103.051 66.4088 105.041 67.1253L105.733 65.1378C104.537 64.7419 103.894 63.8416 103.969 62.551C104.07 60.8041 105.474 59.878 107.264 59.9812C109.054 60.0844 110.339 61.2179 110.239 62.9517C110.165 64.2162 109.416 64.9316 108.196 65.1752L108.666 67.2427C110.679 66.888 112.029 65.3047 112.159 63.0625C112.328 60.1424 110.25 57.9952 107.389 57.8302Z" fill="#FCFAF9"/>
<path d="M100.213 73.2286L101.586 68.0397L110.621 70.42L109.248 75.6089L107.679 75.1955L108.547 71.913L106.561 71.3896L105.752 74.4449L104.183 74.0315L104.991 70.9762L102.663 70.3628L101.794 73.6453L100.213 73.2286ZM112.409 74.9157C112.192 74.9847 111.941 75.0806 111.656 75.2035C111.377 75.3371 111.101 75.476 110.828 75.6202C110.556 75.7644 110.323 75.8923 110.131 76.0038L109.967 75.9605L110.298 74.7106C110.49 74.5273 110.71 74.3285 110.956 74.1143C111.211 73.9023 111.481 73.7168 111.767 73.558C111.597 73.2792 111.457 72.9902 111.346 72.691C111.236 72.3918 111.138 72.1139 111.053 71.8573L111.383 70.6074L111.548 70.6507C111.666 70.8529 111.805 71.0785 111.964 71.3277C112.13 71.5875 112.303 71.84 112.481 72.0851C112.666 72.341 112.836 72.5522 112.99 72.7189L112.409 74.9157Z" fill="#FCFAF9"/>
<path d="M98.3837 77.9266L95.0399 83.8406L96.67 84.758L98.9849 80.6637L100.968 81.7801L99.4379 84.4869L101.068 85.4043L102.598 82.6975L104.274 83.6406L102.023 87.6212L103.654 88.5386L106.933 82.7384L98.3837 77.9266Z" fill="#FCFAF9"/>
<path d="M95.4233 94.8668C97.0385 95.5738 98.5752 95.1663 99.8589 93.6671C101.219 92.0787 101.4 90.0176 100.027 88.8471C98.3753 87.4391 96.8143 88.5987 95.5652 89.595C94.699 90.2649 93.9959 90.885 93.3292 90.3167C92.7222 89.7993 92.9026 89.0257 93.5147 88.3109C94.2033 87.5067 95.0362 87.2377 96.035 87.78L96.9531 85.763C95.2568 84.9698 93.6023 85.4144 92.1741 87.0822C90.6864 88.8196 90.5902 90.7814 92.043 92.0198C93.6251 93.3684 95.1849 92.3107 96.4184 91.3527C97.3286 90.6516 98.0757 90.0003 98.7125 90.5431C99.2399 90.9927 99.1488 91.7222 98.5027 92.4768C97.8736 93.2114 97.0916 93.3005 96.3287 92.925L95.4233 94.8668Z" fill="#FCFAF9"/>
<path d="M87.1457 92.2948L85.5043 93.5921L90.4048 99.7641L88.2094 101.499L89.404 103.004L95.4362 98.2362L94.2416 96.7316L92.0462 98.4668L87.1457 92.2948Z" fill="#FCFAF9"/>
<path d="M77.2751 98.4831L78.8952 100.149L81.9238 98.6012L81.515 96.316L83.4137 95.3455L84.7569 105.179L82.602 106.28L75.3764 99.4535L77.2751 98.4831ZM81.6687 103.03C81.7752 103.142 81.9112 103.283 82.0767 103.453C82.2423 103.622 82.4098 103.796 82.5794 103.973C82.7489 104.151 82.8928 104.307 83.0112 104.442C82.9705 104.267 82.9254 104.046 82.8759 103.778C82.8227 103.521 82.7734 103.273 82.7282 103.032C82.6791 102.802 82.6482 102.637 82.6355 102.536L82.239 100.303L80.0724 101.411L81.6687 103.03ZM82.4511 109.394C82.5041 109.23 82.5801 109.025 82.6792 108.779C82.7782 108.532 82.8888 108.271 83.0109 107.993C83.1253 107.719 83.2437 107.453 83.366 107.195C83.4846 106.949 83.5918 106.737 83.6876 106.561L84.8408 105.972L84.9183 106.123C84.8697 106.334 84.8135 106.578 84.7499 106.855C84.6825 107.143 84.621 107.434 84.5653 107.727C84.5136 108.027 84.4772 108.29 84.456 108.516L82.5107 109.51L82.4511 109.394Z" fill="#FCFAF9"/>
<path d="M71.3924 100.558L69.3584 101.054L71.6918 110.567L73.7258 110.07L71.3924 100.558Z" fill="#FCFAF9"/>
<path d="M67.2799 101.715L65.3334 101.832L65.7452 108.649L61.0353 102.091L58.8144 102.224L59.405 112L61.3646 111.882L60.9559 105.117L65.6496 111.624L67.8704 111.491L67.2799 101.715Z" fill="#FCFAF9"/>
<path d="M48.4731 108.18C48.7017 109.925 49.8459 111.027 51.7957 111.348C53.8618 111.688 55.7237 110.778 56.0179 109C56.3719 106.861 54.5698 106.127 53.0693 105.576C52.0467 105.182 51.1512 104.903 51.2941 104.039C51.4241 103.253 52.1811 103.008 53.1108 103.161C54.1568 103.333 54.8182 103.905 54.8694 105.039L57.0744 104.78C56.878 102.921 55.6411 101.738 53.4718 101.381C51.212 101.008 49.4792 101.94 49.1679 103.821C48.8289 105.87 50.5428 106.655 52.0025 107.213C53.0746 107.628 54.0196 107.929 53.8832 108.754C53.7702 109.437 53.0972 109.736 52.1158 109.574C51.1602 109.417 50.6795 108.795 50.6072 107.95L48.4731 108.18Z" fill="#FCFAF9"/>
<path d="M47.1209 105.385C48.1937 102.691 47.2153 99.9853 44.43 98.8812C42.3136 98.0423 40.3268 98.5755 39.0183 100.235L40.691 101.516C41.4444 100.508 42.5033 100.183 43.7074 100.66C45.3373 101.306 45.7761 102.927 45.1141 104.59C44.452 106.252 42.9691 107.112 41.3514 106.471C40.1716 106.003 39.7271 105.068 39.8798 103.836L37.7649 103.63C37.4683 105.648 38.549 107.425 40.6411 108.255C43.3656 109.335 46.0627 108.043 47.1209 105.385Z" fill="#FCFAF9"/>
<path d="M39.2803 96.7945L37.57 95.6118L35.5197 98.5632L34.2182 97.6631L34.4182 93.4324L32.482 92.0935L32.2709 96.9362C31.185 96.7572 30.1286 97.1547 29.4501 98.1314C28.3617 99.6983 28.8052 101.467 30.408 102.575L33.6888 104.844L39.2803 96.7945ZM31.5279 101.077C30.8717 100.624 30.7388 99.944 31.1712 99.3215C31.5962 98.7098 32.27 98.5879 32.9154 99.0342L34.4536 100.098L33.0446 102.126L31.5279 101.077Z" fill="#FCFAF9"/>
<path d="M31.8079 91.2326L30.3008 89.7821L23.486 96.8306L24.9931 98.2811L31.8079 91.2326Z" fill="#FCFAF9"/>
<path d="M27.3828 86.5684L26.1078 84.911L19.8472 89.705L18.142 87.4882L16.6158 88.6569L21.3012 94.7478L22.8274 93.5791L21.1222 91.3624L27.3828 86.5684Z" fill="#FCFAF9"/>
<path d="M19.5823 84.4613C22.2291 83.2345 23.2824 80.4137 22.0528 77.7729C20.8231 75.1321 17.9833 74.1159 15.3364 75.3427C12.6895 76.5695 11.6362 79.3903 12.8659 82.0311C14.0955 84.6719 16.9354 85.6881 19.5823 84.4613ZM16.2462 77.2967C17.9673 76.499 19.5746 77.0066 20.308 78.5816C21.0414 80.1567 20.3935 81.7096 18.6724 82.5073C16.9514 83.305 15.344 82.7974 14.6107 81.2224C13.8773 79.6473 14.5251 78.0944 16.2462 77.2967Z" fill="#FCFAF9"/>
<path d="M18.6767 69.2263L18.4654 67.2922L11.6608 68.0319L17.999 63.0214L17.758 60.8146L8 61.8754L8.21264 63.8226L14.9652 63.0885L8.67762 68.0804L8.91861 70.2871L18.6767 69.2263Z" fill="#FCFAF9"/>
<path d="M17.6275 59.7834L17.8856 57.7101L15.3911 56.4537L15.825 52.9679L18.5517 52.3583L18.821 50.1943L8.62198 52.6676L8.34458 54.8964L17.6275 59.7834ZM13.5933 55.5335L10.7513 54.1025L13.8578 53.4084L13.5933 55.5335Z" fill="#FCFAF9"/>
<path d="M19.8536 46.5681L20.6717 44.802L14.4583 41.9369L22.4782 40.9023L23.4116 38.8872L14.5013 34.7786L13.6777 36.5566L19.8436 39.3998L11.8768 40.4445L10.9434 42.4595L19.8536 46.5681Z" fill="#FCFAF9"/>
<path d="M24.5801 37.0548L28.703 31.6525L27.214 30.5213L24.3596 34.2613L22.5478 32.8849L24.4349 30.4123L22.9458 29.2811L21.0588 31.7537L19.5281 30.5908L22.3032 26.9547L20.8142 25.8234L16.7705 31.1218L24.5801 37.0548Z" fill="#FCFAF9"/>
<path d="M28.4938 22.4539L29.6142 27.1225L23.9033 22.5042L22.2922 23.8182L30.065 30.1279L31.7775 28.7313L30.8923 25.0513L34.3918 26.5991L36.1043 25.2025L31.4423 16.3556L29.8514 17.6531L33.2805 24.1492L28.8484 22.1646L28.4938 22.4539Z" fill="#FCFAF9"/>
<path d="M41.8116 13.9043C40.6222 12.6048 39.0518 12.3559 37.2693 13.2073C35.3805 14.1093 34.3775 15.9202 35.1573 17.5456C36.0954 19.5007 37.9936 19.0719 39.5401 18.6662C40.6042 18.4041 41.4989 18.1216 41.8775 18.9107C42.2222 19.6292 41.7429 20.2634 40.893 20.6694C39.9368 21.1261 39.0661 21.0352 38.3733 20.1355L36.7147 21.6081C37.9431 23.0192 39.6362 23.2819 41.6194 22.3347C43.6853 21.3481 44.5702 19.5936 43.7452 17.874C42.8467 16.0013 40.9911 16.3374 39.4743 16.7144C38.3573 16.9872 37.4098 17.2805 37.0481 16.5267C36.7486 15.9025 37.1283 15.2724 38.0255 14.8439C38.899 14.4267 39.6501 14.6615 40.195 15.3133L41.8116 13.9043Z" fill="#FCFAF9"/>
<path d="M46.4033 20.0415L52.6654 18.437L52.1869 16.5778L47.953 17.6626L45.9899 10.0362L43.9617 10.5559L46.4033 20.0415Z" fill="#FCFAF9"/>
<path d="M54.0594 18.1987L60.8511 17.7651L60.7316 15.9016L56.0296 16.2018L55.8842 13.9344L58.9927 13.7359L58.8732 11.8725L55.7647 12.0709L55.6418 10.1553L60.2132 9.86346L60.0937 8L53.4325 8.4253L54.0594 18.1987Z" fill="#FCFAF9"/>
<path d="M64.0606 18.0746L66.1387 18.332L67.1112 10.5182L69.8906 10.8625L70.1277 8.95764L62.4908 8.01147L62.2537 9.91634L65.0331 10.2607L64.0606 18.0746Z" fill="#FCFAF9"/>
<path d="M71.8074 19.546L73.8022 20.1814L76.2025 12.6806L78.8706 13.5305L79.4557 11.7019L72.1247 9.36666L71.5395 11.1952L74.2076 12.0451L71.8074 19.546Z" fill="#FCFAF9"/>
<path d="M77.1408 21.354L83.1406 24.5589L84.024 22.9127L79.8703 20.6939L80.9451 18.6908L83.6912 20.1577L84.5746 18.5115L81.8285 17.0447L82.7365 15.3524L86.7749 17.5095L87.6583 15.8633L81.7738 12.7201L77.1408 21.354Z" fill="#FCFAF9"/>
<path d="M84.0988 25.1465L85.6961 26.4772L88.003 23.7209L89.2185 24.7336L88.6396 28.9295L90.4478 30.436L91.0928 25.6316C92.1582 25.9069 93.2461 25.6054 94.0094 24.6933C95.2342 23.2299 94.9511 21.429 93.4543 20.182L90.3903 17.6293L84.0988 25.1465ZM92.2045 21.5734C92.8173 22.0839 92.8886 22.7728 92.4021 23.3542C91.924 23.9255 91.2419 23.9866 90.6391 23.4845L89.2026 22.2876L90.788 20.3933L92.2045 21.5734Z" fill="#FCFAF9"/>
<path d="M96.7072 30.582C97.1005 30.2927 97.4631 30.1232 97.7951 30.0737C98.1322 30.0311 98.4363 30.0832 98.7073 30.2299C98.9854 30.3715 99.2254 30.5789 99.4274 30.8521C99.6293 31.1254 99.7544 31.4119 99.8025 31.7118C99.8629 32.0135 99.8229 32.3187 99.6825 32.6275C99.5422 32.9363 99.2753 33.2353 98.8821 33.5246C98.4959 33.8088 98.1342 33.9721 97.797 34.0147C97.4599 34.0572 97.1523 34.0077 96.8742 33.8662C96.6013 33.7316 96.3639 33.5278 96.1619 33.2545C95.96 32.9813 95.8323 32.6912 95.779 32.3843C95.7257 32.0775 95.7692 31.7696 95.9095 31.4609C96.0551 31.1591 96.321 30.8661 96.7072 30.582Z" fill="#FCFAF9"/>
<path fill-rule="evenodd" clip-rule="evenodd" d="M46.5754 41.8197C46.3235 41.8199 46.0736 41.8452 46.0203 41.876C45.9123 41.9384 58.2643 63.426 58.5743 63.7151C58.8062 63.9314 59.4793 64.1117 59.7883 64.0404C60.1981 63.9458 81.6424 51.5122 81.5804 51.4052C81.5498 51.3524 81.3307 51.1989 81.0934 51.0642C80.7096 50.8462 78.8018 50.3213 63.8477 46.3193C49.2824 42.4212 46.9723 41.8194 46.5754 41.8197ZM43.4919 43.466C43.2523 43.8183 43.0938 44.3821 40.2477 55.004C37.4016 65.6259 37.2569 66.1934 37.2883 66.6183C37.3065 66.864 37.3448 67.0713 37.3736 67.0791C37.4023 67.0867 40.8449 65.119 45.0235 62.7063L52.6211 58.3194L48.2348 50.7215C45.8224 46.5427 43.8249 43.1173 43.7962 43.1096C43.7674 43.1019 43.6305 43.2623 43.4919 43.466ZM75.2393 57.9574L67.6417 62.3442L72.028 69.9421C74.4405 74.1209 76.4379 77.5463 76.4666 77.554C76.4954 77.5617 76.6323 77.4013 76.7709 77.1976C77.0105 76.8454 77.169 76.2815 80.0151 65.6596C82.8613 55.0378 83.0059 54.4702 82.9745 54.0453C82.9564 53.7996 82.918 53.5923 82.8892 53.5846C82.8605 53.5769 79.418 55.5446 75.2393 57.9574ZM46.1729 64.8056C41.2819 67.6297 38.6465 69.1963 38.6825 69.2585C38.713 69.3113 38.9322 69.4647 39.1695 69.5995C39.5529 69.8172 41.4684 70.3449 56.378 74.3399C71.2876 78.3349 73.2102 78.8357 73.6512 78.8388C73.9241 78.8408 74.1907 78.8175 74.2435 78.787C74.3059 78.7511 72.8049 76.0734 69.9704 71.1639L65.6012 63.5961L63.2591 64.9338C61.1161 66.1578 60.8576 66.2832 60.2171 66.4098L59.5171 66.5481L58.5362 66.2853L57.5553 66.0224L57.0186 65.5516C56.529 65.1222 56.363 64.8774 55.1334 62.7735C54.3918 61.5046 53.7701 60.4623 53.7519 60.4575C53.7337 60.4526 50.3232 62.4092 46.1729 64.8056Z" fill="#FCFAF9"/>
</svg>

<svg xmlns="http://www.w3.org/2000/svg" width="120" height="120" fill="none"><circle cx="60" cy="60" r="60" fill="#FE6D44"/><path fill="#FCFAF9" d="m105.658 34.548-7.654 6.923 1.125 2.516 10.265-1.079-.874-1.956-7.92.908 5.964-5.285-.906-2.027ZM105.452 46.3c-2.87.531-4.593 3.002-4.061 5.865.532 2.863 3.029 4.552 5.899 4.021 2.87-.531 4.593-3.002 4.061-5.865-.532-2.863-3.03-4.552-5.899-4.02Zm1.444 7.768c-1.866.345-3.296-.546-3.613-2.253-.318-1.708.697-3.051 2.563-3.396 1.866-.346 3.296.545 3.613 2.252.318 1.708-.697 3.051-2.563 3.397ZM107.389 57.83c-2.901-.167-5.167 1.612-5.34 4.597-.131 2.268 1.002 3.982 2.992 4.698l.692-1.987c-1.196-.396-1.839-1.296-1.764-2.587.101-1.747 1.505-2.673 3.295-2.57 1.79.103 3.075 1.237 2.975 2.97-.074 1.265-.823 1.98-2.043 2.224l.47 2.068c2.013-.355 3.363-1.938 3.493-4.18.169-2.92-1.909-5.068-4.77-5.233ZM100.213 73.229l1.373-5.19 9.035 2.381-1.373 5.189-1.569-.413.868-3.283-1.986-.523-.809 3.055-1.569-.413.808-3.056-2.328-.613-.869 3.282-1.581-.416Zm12.196 1.687a8.264 8.264 0 0 0-.753.288 23.544 23.544 0 0 0-1.525.8l-.164-.044.331-1.25c.192-.183.412-.381.658-.596.255-.212.525-.397.811-.556a5.007 5.007 0 0 1-.421-.867c-.11-.3-.208-.577-.293-.834l.33-1.25.165.044c.118.202.257.428.416.677.166.26.339.512.517.757.185.256.355.467.509.634l-.581 2.197ZM98.384 77.927 95.04 83.84l1.63.917 2.315-4.094 1.983 1.116-1.53 2.707 1.63.917 1.53-2.706 1.676.943-2.251 3.98 1.631.918 3.279-5.8-8.55-4.812ZM95.423 94.867c1.615.707 3.152.3 4.436-1.2 1.36-1.588 1.541-3.65.168-4.82-1.652-1.408-3.213-.248-4.462.748-.866.67-1.57 1.29-2.236.722-.607-.518-.426-1.291.186-2.006.688-.804 1.521-1.073 2.52-.531l.918-2.017c-1.696-.793-3.35-.349-4.779 1.32-1.488 1.737-1.584 3.698-.131 4.937 1.582 1.348 3.142.29 4.375-.667.91-.701 1.658-1.353 2.294-.81.528.45.437 1.18-.21 1.934-.628.734-1.41.823-2.173.448l-.906 1.942ZM87.146 92.295l-1.642 1.297 4.9 6.172-2.195 1.735 1.195 1.505 6.032-4.768-1.194-1.504-2.196 1.735-4.9-6.172ZM77.275 98.483l1.62 1.666 3.029-1.548-.409-2.285 1.899-.97 1.343 9.833-2.155 1.101-7.226-6.826 1.9-.97Zm4.394 4.547c.106.112.242.253.408.423.165.169.333.343.502.52.17.178.314.334.432.469a15.23 15.23 0 0 1-.135-.664 40.658 40.658 0 0 1-.148-.746 6.75 6.75 0 0 1-.093-.496l-.396-2.233-2.167 1.108 1.597 1.619Zm.782 6.364c.053-.164.13-.369.228-.615.1-.247.21-.508.332-.786a14.779 14.779 0 0 1 .677-1.432l1.153-.589.077.151-.168.732c-.067.288-.129.579-.185.872-.051.3-.088.563-.109.789l-1.945.994-.06-.116ZM71.392 100.558l-2.034.496 2.334 9.513 2.034-.497-2.334-9.512ZM67.28 101.715l-1.947.117.412 6.817-4.71-6.558-2.22.133.59 9.776 1.96-.118-.41-6.765 4.695 6.507 2.22-.133-.59-9.776ZM48.473 108.18c.229 1.745 1.373 2.847 3.323 3.168 2.066.34 3.928-.57 4.222-2.348.354-2.139-1.448-2.873-2.949-3.424-1.022-.394-1.918-.673-1.775-1.537.13-.786.887-1.031 1.817-.878 1.046.172 1.707.744 1.758 1.878l2.205-.259c-.196-1.859-1.433-3.042-3.602-3.399-2.26-.373-3.993.559-4.304 2.44-.34 2.049 1.375 2.834 2.834 3.392 1.073.415 2.018.716 1.881 1.541-.113.683-.786.982-1.767.82-.956-.157-1.437-.779-1.509-1.624l-2.134.23ZM47.12 105.385c1.074-2.694.095-5.4-2.69-6.504-2.116-.839-4.103-.305-5.412 1.354l1.673 1.281c.753-1.008 1.812-1.333 3.016-.856 1.63.646 2.07 2.267 1.407 3.93-.662 1.662-2.145 2.522-3.763 1.881-1.18-.468-1.624-1.403-1.471-2.635l-2.115-.206c-.297 2.018.784 3.795 2.876 4.625 2.725 1.08 5.422-.212 6.48-2.87ZM39.28 96.794l-1.71-1.182-2.05 2.951-1.302-.9.2-4.23-1.936-1.34-.211 4.843c-1.086-.179-2.142.219-2.82 1.195-1.09 1.567-.646 3.336.957 4.444l3.28 2.269 5.592-8.05Zm-7.752 4.283c-.656-.453-.79-1.133-.357-1.755.425-.612 1.099-.734 1.744-.288l1.539 1.064-1.41 2.028-1.516-1.049ZM31.808 91.233l-1.507-1.45-6.815 7.048 1.507 1.45 6.815-7.048ZM27.383 86.568l-1.275-1.657-6.26 4.794-1.706-2.217-1.526 1.169 4.685 6.09 1.526-1.168-1.705-2.217 6.26-4.794ZM19.582 84.461c2.647-1.227 3.7-4.047 2.47-6.688-1.229-2.64-4.069-3.657-6.716-2.43-2.646 1.227-3.7 4.047-2.47 6.688 1.23 2.64 4.07 3.657 6.716 2.43Zm-3.336-7.164c1.721-.798 3.329-.29 4.062 1.285.733 1.575.085 3.128-1.636 3.925-1.72.798-3.328.29-4.061-1.285-.734-1.575-.086-3.128 1.635-3.925ZM18.677 69.226l-.212-1.934-6.804.74 6.338-5.01-.241-2.207L8 61.875l.213 1.948 6.752-.734-6.287 4.991.24 2.207 9.759-1.06ZM17.628 59.783l.258-2.073-2.495-1.256.434-3.486 2.727-.61.269-2.164-10.199 2.474-.277 2.228 9.283 4.887Zm-4.035-4.25-2.842-1.43 3.107-.695-.265 2.125ZM19.854 46.568l.818-1.766-6.214-2.865 8.02-1.035.934-2.015-8.91-4.108-.824 1.778 6.166 2.843-7.967 1.044-.934 2.015 8.91 4.11ZM24.58 37.055l4.123-5.402-1.489-1.132-2.854 3.74-1.812-1.376 1.887-2.473-1.49-1.13-1.886 2.472-1.53-1.163 2.774-3.636-1.489-1.132-4.044 5.299 7.81 5.933ZM28.494 22.454l1.12 4.668-5.71-4.618-1.612 1.314 7.773 6.31 1.712-1.397-.885-3.68 3.5 1.548 1.712-1.396-4.662-8.847-1.59 1.297 3.429 6.496-4.433-1.984-.354.289ZM41.812 13.904c-1.19-1.3-2.76-1.548-4.543-.697-1.889.902-2.892 2.713-2.112 4.339.938 1.955 2.837 1.526 4.383 1.12 1.064-.262 1.959-.544 2.337.245.345.718-.134 1.352-.984 1.758-.956.457-1.827.366-2.52-.534l-1.658 1.473c1.228 1.411 2.921 1.674 4.904.727 2.066-.987 2.951-2.741 2.126-4.461-.898-1.873-2.754-1.537-4.27-1.16-1.118.273-2.065.567-2.427-.187-.3-.625.08-1.255.977-1.683.874-.417 1.625-.182 2.17.47l1.617-1.41ZM46.403 20.041l6.262-1.604-.478-1.86-4.234 1.086-1.963-7.627-2.028.52 2.441 9.486ZM54.06 18.199l6.791-.434-.12-1.863-4.701.3-.146-2.268 3.109-.198-.12-1.864-3.108.199-.123-1.916 4.571-.292L60.093 8l-6.66.425.626 9.774ZM64.06 18.075l2.079.257.972-7.814 2.78.345.237-1.905-7.637-.947-.237 1.905 2.78.345-.973 7.814ZM71.807 19.546l1.995.635 2.4-7.5 2.669.85.585-1.83-7.331-2.334-.585 1.828 2.668.85-2.4 7.501ZM77.14 21.354l6 3.205.884-1.646-4.154-2.22 1.075-2.002 2.746 1.467.884-1.646-2.746-1.467.908-1.693 4.038 2.157.883-1.646-5.884-3.143-4.633 8.634ZM84.099 25.146l1.597 1.331 2.307-2.756 1.216 1.013-.58 4.195 1.809 1.507.645-4.804c1.065.275 2.153-.027 2.916-.939 1.225-1.463.942-3.264-.555-4.511l-3.064-2.553-6.291 7.517Zm8.105-3.573c.613.51.685 1.2.198 1.781-.478.572-1.16.633-1.763.13l-1.436-1.196 1.585-1.895 1.416 1.18ZM96.707 30.582c.394-.29.756-.459 1.088-.508.337-.043.641.01.912.156.278.142.518.349.72.622.202.273.327.56.375.86.06.302.02.607-.12.915-.14.31-.407.608-.8.898-.386.284-.748.447-1.085.49a1.56 1.56 0 0 1-.923-.149 1.967 1.967 0 0 1-.712-.611 2.041 2.041 0 0 1-.383-.87 1.55 1.55 0 0 1 .13-.924c.146-.302.412-.595.798-.879Z"/><path fill="#FCFAF9" fill-rule="evenodd" d="M46.575 41.82c-.252 0-.501.025-.555.056-.108.062 12.244 21.55 12.554 21.84.232.215.905.396 1.214.324.41-.094 21.854-12.528 21.792-12.635-.03-.053-.25-.206-.487-.34-.383-.219-2.291-.744-17.245-4.746-14.566-3.898-16.876-4.5-17.273-4.5Zm-3.083 1.646c-.24.352-.398.916-3.244 11.538s-2.991 11.19-2.96 11.614c.019.246.057.453.086.461.028.008 3.47-1.96 7.65-4.373l7.597-4.387-4.386-7.598c-2.413-4.178-4.41-7.604-4.439-7.611-.029-.008-.166.152-.304.356Zm31.747 14.491-7.597 4.387 4.386 7.598c2.412 4.179 4.41 7.604 4.439 7.612.028.008.165-.153.304-.356.24-.353.398-.916 3.244-11.538s2.99-11.19 2.96-11.615c-.019-.245-.057-.453-.086-.46-.028-.008-3.471 1.96-7.65 4.372Zm-29.066 6.849c-4.891 2.824-7.526 4.39-7.49 4.453.03.052.25.206.486.34.384.218 2.3.746 17.209 4.74 14.91 3.996 16.832 4.497 17.273 4.5.273.002.54-.022.593-.052.062-.036-1.44-2.714-4.274-7.623l-4.369-7.568-2.342 1.338c-2.143 1.224-2.401 1.35-3.042 1.476l-.7.138-.98-.263-.982-.263-.536-.47c-.49-.43-.656-.675-1.886-2.779-.741-1.268-1.363-2.31-1.381-2.316-.018-.004-3.429 1.952-7.58 4.349Z" clip-rule="evenodd"/></svg>
